src/assets/logo.svg

<svg width="107" height="19" viewBox="0 0 107 19" fill="none" xmlns="http://www.w3.org/2000/svg">
<path fill-rule="evenodd" clip-rule="evenodd" d="M86.4527 15.712H86.5007L90.2687 0.736023H91.9487L87.4127 18.016H85.6127L81.6047 2.75202H81.5567L77.5487 18.016H75.7487L71.2847 0.736023H72.9167L76.6367 15.712H76.6847L80.6927 0.736023H82.5167L86.4527 15.712ZM93.1636 18.016V5.58402H94.6036V18.016H93.1636ZM93.0916 2.87202V0.736023H94.6756V2.87202H93.0916ZM96.2745 18.016V16.744L104.53 6.78402H96.8265V5.58402H106.378V6.85602L98.1225 16.816H106.69V18.016H96.2745Z" fill="#850D16"/>
<path fill-rule="evenodd" clip-rule="evenodd" d="M13.056 5.472C12.72 3.99999 12.096 2.952 11.184 2.328C10.272 1.704 9.08001 1.392 7.608 1.392C6.56799 1.392 5.672 1.6 4.92 2.016C4.168 2.432 3.548 2.992 3.06 3.696C2.572 4.4 2.212 5.212 1.98 6.132C1.748 7.052 1.632 8.024 1.632 9.048C1.632 10.008 1.732 10.952 1.932 11.88C2.132 12.808 2.464 13.636 2.928 14.364C3.392 15.092 4.016 15.68 4.8 16.128C5.584 16.576 6.56799 16.8 7.752 16.8C8.488 16.8 9.16 16.68 9.768 16.44C10.376 16.2 10.908 15.868 11.364 15.444C11.82 15.02 12.204 14.52 12.516 13.944C12.828 13.368 13.064 12.736 13.224 12.048H14.928C14.736 12.88 14.456 13.668 14.088 14.412C13.72 15.156 13.236 15.808 12.636 16.368C12.036 16.928 11.308 17.372 10.452 17.7C9.59599 18.028 8.59201 18.192 7.44 18.192C6.11199 18.192 4.976 17.948 4.032 17.46C3.088 16.972 2.316 16.312 1.716 15.48C1.116 14.648 0.680001 13.684 0.408 12.588C0.135999 11.492 0 10.328 0 9.096C0 7.44799 0.203998 6.04801 0.612 4.896C1.02 3.74399 1.584 2.804 2.304 2.076C3.024 1.348 3.872 0.820002 4.848 0.492C5.82401 0.163998 6.88799 0 8.04 0C8.92 0 9.74 0.115999 10.5 0.348C11.26 0.580001 11.932 0.927998 12.516 1.392C13.1 1.856 13.58 2.428 13.956 3.108C14.332 3.788 14.592 4.576 14.736 5.472H13.056ZM16.8389 17.736V0.456H18.2789V7.032C18.8549 6.424 19.4509 5.928 20.0669 5.544C20.6829 5.16 21.4229 4.968 22.2869 4.968C23.0549 4.968 23.7669 5.1 24.4229 5.364C25.0789 5.628 25.6309 6.088 26.0789 6.744C26.3829 7.192 26.5629 7.652 26.6189 8.124C26.6749 8.596 26.7029 9.088 26.7029 9.6V17.736H25.2629V9.624C25.2629 8.50399 25.0149 7.664 24.5189 7.104C24.0229 6.544 23.1989 6.264 22.0469 6.264C21.5989 6.264 21.1909 6.332 20.8229 6.468C20.4549 6.604 20.1229 6.784 19.8269 7.008C19.5309 7.232 19.2789 7.488 19.0709 7.776C18.8629 8.064 18.7029 8.368 18.5909 8.688C18.4469 9.088 18.3589 9.472 18.3269 9.84C18.2949 10.208 18.2789 10.608 18.2789 11.04V17.736H16.8389ZM30.6298 17.736H29.1898V5.304H30.6298V7.632H30.6778C31.0778 6.64 31.5938 5.948 32.2258 5.556C32.8578 5.164 33.6938 4.968 34.7338 4.968V6.528C33.9178 6.512 33.2458 6.64 32.7178 6.912C32.1898 7.184 31.7698 7.552 31.4578 8.016C31.1458 8.48 30.9298 9.028 30.8098 9.66C30.6898 10.292 30.6298 10.952 30.6298 11.64V17.736ZM40.5567 18.072C39.7567 18.056 39.0087 17.912 38.3127 17.64C37.6167 17.368 37.0087 16.96 36.4887 16.416C35.9687 15.872 35.5567 15.192 35.2527 14.376C34.9487 13.56 34.7967 12.608 34.7967 11.52C34.7967 10.608 34.9167 9.756 35.1567 8.964C35.3967 8.172 35.7567 7.48 36.2367 6.888C36.7167 6.296 37.3167 5.828 38.0367 5.484C38.7567 5.14 39.5967 4.968 40.5567 4.968C41.5327 4.968 42.3807 5.14 43.1007 5.484C43.8207 5.828 44.4207 6.292 44.9007 6.876C45.3807 7.46 45.7367 8.152 45.9687 8.952C46.2007 9.752 46.3167 10.608 46.3167 11.52C46.3167 12.512 46.1807 13.408 45.9087 14.208C45.6367 15.008 45.2487 15.696 44.7447 16.272C44.2407 16.848 43.6327 17.292 42.9207 17.604C42.2087 17.916 41.4207 18.072 40.5567 18.072ZM44.7807 11.52C44.7807 10.784 44.7007 10.096 44.5407 9.456C44.3807 8.816 44.1327 8.26 43.7967 7.788C43.4607 7.316 43.0287 6.944 42.5007 6.672C41.9727 6.4 41.3247 6.264 40.5567 6.264C39.8047 6.264 39.1607 6.412 38.6247 6.708C38.0887 7.004 37.6527 7.396 37.3167 7.884C36.9807 8.372 36.7327 8.932 36.5727 9.564C36.4127 10.196 36.3327 10.848 36.3327 11.52C36.3327 12.288 36.4247 12.996 36.6087 13.644C36.7927 14.292 37.0607 14.848 37.4127 15.312C37.7647 15.776 38.2047 16.136 38.7327 16.392C39.2607 16.648 39.8687 16.776 40.5567 16.776C41.3087 16.776 41.9527 16.628 42.4887 16.332C43.0247 16.036 43.4607 15.64 43.7967 15.144C44.1327 14.648 44.3807 14.088 44.5407 13.464C44.7007 12.84 44.7807 12.192 44.7807 11.52ZM49.3316 17.736H47.8916V5.304H49.3316V7.032C49.9076 6.424 50.5036 5.928 51.1196 5.544C51.7356 5.16 52.4756 4.968 53.3396 4.968C54.1077 4.968 54.8196 5.1 55.4756 5.364C56.1316 5.628 56.6836 6.088 57.1316 6.744C57.4356 7.192 57.6156 7.652 57.6716 8.124C57.7276 8.596 57.7556 9.088 57.7556 9.6V17.736H56.3156V9.624C56.3156 8.50399 56.0676 7.664 55.5716 7.104C55.0756 6.544 54.2517 6.264 53.0996 6.264C52.6516 6.264 52.2436 6.332 51.8756 6.468C51.5076 6.604 51.1756 6.784 50.8796 7.008C50.5836 7.232 50.3316 7.488 50.1236 7.776C49.9156 8.064 49.7556 8.368 49.6436 8.688C49.4996 9.088 49.4116 9.472 49.3796 9.84C49.3476 10.208 49.3316 10.608 49.3316 11.04V17.736ZM65.1146 18.072C64.3146 18.056 63.5666 17.912 62.8706 17.64C62.1746 17.368 61.5666 16.96 61.0466 16.416C60.5266 15.872 60.1146 15.192 59.8106 14.376C59.5066 13.56 59.3546 12.608 59.3546 11.52C59.3546 10.608 59.4746 9.756 59.7146 8.964C59.9546 8.172 60.3146 7.48 60.7946 6.888C61.2746 6.296 61.8746 5.828 62.5946 5.484C63.3146 5.14 64.1546 4.968 65.1146 4.968C66.0906 4.968 66.9386 5.14 67.6586 5.484C68.3786 5.828 68.9786 6.292 69.4586 6.876C69.9386 7.46 70.2946 8.152 70.5266 8.952C70.7586 9.752 70.8746 10.608 70.8746 11.52C70.8746 12.512 70.7386 13.408 70.4666 14.208C70.1946 15.008 69.8066 15.696 69.3026 16.272C68.7986 16.848 68.1906 17.292 67.4786 17.604C66.7666 17.916 65.9786 18.072 65.1146 18.072ZM69.3386 11.52C69.3386 10.784 69.2586 10.096 69.0986 9.456C68.9386 8.816 68.6906 8.26 68.3546 7.788C68.0186 7.316 67.5866 6.944 67.0586 6.672C66.5306 6.4 65.8826 6.264 65.1146 6.264C64.3625 6.264 63.7186 6.412 63.1826 6.708C62.6466 7.004 62.2106 7.396 61.8746 7.884C61.5386 8.372 61.2906 8.932 61.1306 9.564C60.9706 10.196 60.8906 10.848 60.8906 11.52C60.8906 12.288 60.9826 12.996 61.1666 13.644C61.3506 14.292 61.6186 14.848 61.9706 15.312C62.3226 15.776 62.7626 16.136 63.2906 16.392C63.8186 16.648 64.4266 16.776 65.1146 16.776C65.8666 16.776 66.5106 16.628 67.0466 16.332C67.5826 16.036 68.0186 15.64 68.3546 15.144C68.6906 14.648 68.9386 14.088 69.0986 13.464C69.2586 12.84 69.3386 12.192 69.3386 11.52Z" fill="#333333"/>
</svg>

<svg xmlns="http://www.w3.org/2000/svg" viewBox="0 0 106.691 76.456">
  <defs>
    <style>
      .cls-1 {
        fill: #7a1c1c;
      }

      .cls-2 {
        fill: #333;
      }
    </style>
  </defs>
  <g id="LOGO_Copy_2" data-name="LOGO Copy 2" transform="translate(-0.715)">
    <g id="Group">
      <path id="Wiz" class="cls-1" d="M6.264,17.281h-1.8L0,0H1.632L5.352,14.976H5.4L9.408,0h1.824l3.936,14.976h.049L18.984,0h1.68L16.128,17.279h-1.8L10.32,2.016h-.049L6.264,17.28Zm17.055,0h-1.44V4.848h1.44V17.279Zm12.087,0H24.989V16.008l8.257-9.96h-7.7v-1.2h9.552V6.12l-8.256,9.96h8.568v1.2ZM23.391,2.136H21.807V0h1.584V2.135Z" transform="translate(72 59)"/>
      <path id="Chrono" class="cls-2" d="M7.44,18.192a7.409,7.409,0,0,1-3.408-.732,6.5,6.5,0,0,1-2.316-1.98A8.376,8.376,0,0,1,.408,12.588,14.407,14.407,0,0,1,0,9.1,12.761,12.761,0,0,1,.612,4.9,7.531,7.531,0,0,1,2.3,2.076,6.414,6.414,0,0,1,4.848.492,9.991,9.991,0,0,1,8.04,0,8.376,8.376,0,0,1,10.5.348a6.046,6.046,0,0,1,2.016,1.044,5.693,5.693,0,0,1,1.44,1.715,7.26,7.26,0,0,1,.779,2.364H13.056a4.965,4.965,0,0,0-1.872-3.144,6.242,6.242,0,0,0-3.577-.936,5.493,5.493,0,0,0-2.687.624A5.455,5.455,0,0,0,3.06,3.7,7.464,7.464,0,0,0,1.98,6.132a11.876,11.876,0,0,0-.348,2.916,13.28,13.28,0,0,0,.3,2.832,7.573,7.573,0,0,0,1,2.484A5.279,5.279,0,0,0,4.8,16.128a5.881,5.881,0,0,0,2.952.672,5.524,5.524,0,0,0,2.016-.36,5.071,5.071,0,0,0,1.6-1,5.839,5.839,0,0,0,1.152-1.5,7.63,7.63,0,0,0,.707-1.9h1.7a10.972,10.972,0,0,1-.841,2.363,6.746,6.746,0,0,1-1.452,1.957A6.694,6.694,0,0,1,10.452,17.7,8.489,8.489,0,0,1,7.44,18.192Zm57.675-.12a6.508,6.508,0,0,1-2.245-.432,5.05,5.05,0,0,1-1.823-1.224,5.907,5.907,0,0,1-1.237-2.04,8.19,8.19,0,0,1-.455-2.856,8.818,8.818,0,0,1,.36-2.556,6.044,6.044,0,0,1,1.08-2.076,5.149,5.149,0,0,1,1.8-1.4,5.816,5.816,0,0,1,2.52-.516,5.875,5.875,0,0,1,2.543.516,5.21,5.21,0,0,1,1.8,1.392,5.776,5.776,0,0,1,1.068,2.076,9.21,9.21,0,0,1,.348,2.568,8.369,8.369,0,0,1-.409,2.688A6.061,6.061,0,0,1,69.3,16.272,5.164,5.164,0,0,1,67.478,17.6,5.851,5.851,0,0,1,65.115,18.072Zm0-11.808a3.956,3.956,0,0,0-1.932.444,3.8,3.8,0,0,0-1.308,1.176,5.183,5.183,0,0,0-.744,1.68,7.963,7.963,0,0,0-.24,1.956,7.772,7.772,0,0,0,.276,2.124,4.988,4.988,0,0,0,.8,1.668,3.616,3.616,0,0,0,1.32,1.08,4.147,4.147,0,0,0,1.824.384,3.954,3.954,0,0,0,1.931-.444,3.761,3.761,0,0,0,1.309-1.188,5.365,5.365,0,0,0,.743-1.68,7.82,7.82,0,0,0,.24-1.944,8.519,8.519,0,0,0-.24-2.064,4.93,4.93,0,0,0-.743-1.669,3.611,3.611,0,0,0-1.3-1.116A4.233,4.233,0,0,0,65.115,6.264ZM40.557,18.072a6.509,6.509,0,0,1-2.244-.432,5.048,5.048,0,0,1-1.824-1.224,5.881,5.881,0,0,1-1.236-2.04A8.224,8.224,0,0,1,34.8,11.52a8.845,8.845,0,0,1,.36-2.556,6.072,6.072,0,0,1,1.08-2.076,5.149,5.149,0,0,1,1.8-1.4,5.816,5.816,0,0,1,2.52-.516,5.877,5.877,0,0,1,2.544.516,5.239,5.239,0,0,1,1.8,1.392,5.748,5.748,0,0,1,1.067,2.076,9.183,9.183,0,0,1,.348,2.568,8.332,8.332,0,0,1-.408,2.688,6.1,6.1,0,0,1-1.165,2.064A5.146,5.146,0,0,1,42.921,17.6,5.853,5.853,0,0,1,40.557,18.072Zm0-11.808a3.964,3.964,0,0,0-1.932.444,3.8,3.8,0,0,0-1.308,1.176,5.189,5.189,0,0,0-.744,1.68,8.071,8.071,0,0,0-.239,1.956,7.812,7.812,0,0,0,.275,2.124,5,5,0,0,0,.8,1.668,3.626,3.626,0,0,0,1.319,1.08,4.164,4.164,0,0,0,1.824.384,3.964,3.964,0,0,0,1.932-.444A3.757,3.757,0,0,0,43.8,15.144a5.353,5.353,0,0,0,.744-1.68,7.882,7.882,0,0,0,.239-1.944,8.585,8.585,0,0,0-.239-2.064A4.892,4.892,0,0,0,43.8,7.788a3.606,3.606,0,0,0-1.3-1.116A4.217,4.217,0,0,0,40.557,6.264Zm8.775,11.473h-1.44V5.3h1.44V7.032A9.219,9.219,0,0,1,51.12,5.544a4.119,4.119,0,0,1,2.219-.576,5.7,5.7,0,0,1,2.137.4,3.656,3.656,0,0,1,1.656,1.38,3.139,3.139,0,0,1,.54,1.381A12.533,12.533,0,0,1,57.756,9.6v8.135h-1.44V9.624a3.721,3.721,0,0,0-.744-2.52,3.172,3.172,0,0,0-2.471-.84,3.506,3.506,0,0,0-1.224.2,3.835,3.835,0,0,0-1,.54,3.636,3.636,0,0,0-.756.768,3.565,3.565,0,0,0-.48.912,4.648,4.648,0,0,0-.265,1.152c-.032.373-.048.777-.048,1.2v6.7Zm-31.053,0h-1.44V.456h1.44V7.032a9.242,9.242,0,0,1,1.788-1.488,4.1,4.1,0,0,1,2.219-.576,5.7,5.7,0,0,1,2.137.4,3.658,3.658,0,0,1,1.656,1.38,3.139,3.139,0,0,1,.54,1.381A12.355,12.355,0,0,1,26.7,9.6v8.135h-1.44V9.624a3.721,3.721,0,0,0-.744-2.52,3.172,3.172,0,0,0-2.471-.84,3.477,3.477,0,0,0-1.224.2,3.81,3.81,0,0,0-1,.54,3.639,3.639,0,0,0-.756.768,3.57,3.57,0,0,0-.48.912,4.648,4.648,0,0,0-.265,1.152c-.032.381-.048.785-.048,1.2v6.7Zm12.351,0H29.19V5.3h1.44V7.632h.048a4.193,4.193,0,0,1,1.548-2.076,4.743,4.743,0,0,1,2.508-.588v1.56H34.6a4.123,4.123,0,0,0-1.886.385,3.331,3.331,0,0,0-1.26,1.1A4.356,4.356,0,0,0,30.81,9.66a10.556,10.556,0,0,0-.18,1.98v6.1Z" transform="translate(0.715 58.264)"/>
      <g id="Group_2" data-name="Group 2" transform="translate(30)">
        <path id="Combined_Shape" data-name="Combined Shape" class="cls-1" d="M24,48A24,24,0,0,1,7.029,7.029,24,24,0,0,1,40.97,40.97,23.842,23.842,0,0,1,24,48ZM24,.616A23.385,23.385,0,1,0,47.385,24,23.411,23.411,0,0,0,24,.616Z"/>
        <path id="Combined_Shape-2" data-name="Combined Shape" class="cls-1" d="M7.972,11.06a1.219,1.219,0,0,1,.04-.311L0,5.948l.314-.524,8,4.792a1.221,1.221,0,0,1,1.865.119L26.568,0l.163.258L10.325,10.6a1.221,1.221,0,1,1-2.353.459Z" transform="translate(14.555 13.287)"/>
      </g>
      <g id="Group_2_Copy" data-name="Group 2 Copy" transform="translate(30)">
        <g id="Group_2_Copy-2" data-name="Group 2 Copy">
          <path id="Combined_Shape-3" data-name="Combined Shape" class="cls-1" d="M24,48A24,24,0,0,1,7.029,7.029,24,24,0,0,1,40.97,40.97,23.842,23.842,0,0,1,24,48ZM24,.616A23.385,23.385,0,1,0,47.385,24,23.411,23.411,0,0,0,24,.616Z"/>
          <path id="Combined_Shape-4" data-name="Combined Shape" class="cls-1" d="M7.972,11.06a1.219,1.219,0,0,1,.04-.311L0,5.948l.314-.524,8,4.792a1.221,1.221,0,0,1,1.865.119L26.568,0l.163.258L10.325,10.6a1.221,1.221,0,1,1-2.353.459Z" transform="translate(14.555 13.287)"/>
        </g>
      </g>
    </g>
  </g>
</svg>
